icons/svg/dropbox.svg

﻿<?xml version="1.0" encoding="utf-8"?>
<!DOCTYPE svg PUBLIC "-//W3C//DTD SVG 1.1//EN" "http://www.w3.org/Graphics/SVG/1.1/DTD/svg11.dtd">
<svg xmlns="http://www.w3.org/2000/svg" xmlns:xlink="http://www.w3.org/1999/xlink" version="1.1" baseProfile="full" width="24" height="24" viewBox="0 0 24.00 24.00" enable-background="new 0 0 24.00 24.00" xml:space="preserve">
	<path fill="#000000" fill-opacity="1" stroke-width="0.2" stroke-linejoin="round" d="M 12.0127,14.5599L 16.3479,18.1573L 18.203,16.9462L 18.203,18.304L 12.0127,22.0162L 5.82229,18.304L 5.82229,16.9462L 7.6774,18.1573L 12.0127,14.5599 Z M 7.6774,2.48385L 11.9999,6.09166L 16.3226,2.48385L 22.5,6.51721L 18.2286,9.9377L 22.5,13.3584L 16.3226,17.3917L 11.9999,13.7837L 7.6774,17.3917L 1.5,13.3584L 5.77139,9.9377L 1.5,6.51721L 7.6774,2.48385 Z M 11.9999,13.6837L 18.1286,9.93771L 11.9999,6.19167L 5.87139,9.93771L 11.9999,13.6837 Z "/>
</svg>

<svg xmlns="http://www.w3.org/2000/svg" version="1.1" baseProfile="full" width="24" height="24" viewBox="0 0 24.00 24.00" xml:space="preserve"><path fill="#000" fill-opacity="1" stroke-width=".2" stroke-linejoin="round" d="M12.013 14.56l4.335 3.597 1.855-1.21v1.357l-6.19 3.712-6.19-3.712v-1.358l1.854 1.21 4.336-3.596zM7.677 2.484L12 6.092l4.323-3.608L22.5 6.517l-4.27 3.42 4.27 3.42-6.177 4.035L12 13.784l-4.323 3.608L1.5 13.358l4.27-3.42-4.27-3.42 6.177-4.034zM12 13.684l6.13-3.746L12 6.192 5.87 9.938 12 13.684z"/></svg>
